images/textile_certificates/gots.svg

<svg width="80" height="81" viewBox="0 0 80 81" fill="none" xmlns="http://www.w3.org/2000/svg">
<path d="M40.2098 14.4755C25.8998 14.4755 14.3098 26.0755 14.3098 40.3855C14.3098 54.6955 25.9098 66.2855 40.2098 66.2855C54.5098 66.2855 66.1198 54.6855 66.1198 40.3855C66.1198 26.0855 54.5198 14.4755 40.2098 14.4755Z" fill="#419C36"/>
<path d="M21.6599 63.6455C22.8399 64.5655 23.1299 65.8955 22.1899 67.1055C21.2799 68.2755 19.8199 68.2955 18.6899 67.4155C18.3199 67.1255 17.9399 66.7455 17.6799 66.3555L18.1899 65.7655C18.3599 66.1455 18.6499 66.4555 18.9699 66.7055C19.7799 67.3355 20.6999 67.2455 21.3299 66.4355C21.8999 65.7055 21.9799 64.8255 21.1999 64.2155C20.9999 64.0555 20.7999 63.9355 20.5599 63.8655L19.9399 64.6555L20.4199 65.0355L19.9999 65.5655L18.7899 64.6155L20.1799 62.8455C20.7299 63.0155 21.2199 63.2955 21.6599 63.6455Z" fill="#1B191A"/>
<path d="M18.9298 61.2954L15.4498 64.3954L14.7598 63.6254L17.6198 61.0754L16.2898 59.5754L16.8998 59.0254L18.9298 61.2954Z" fill="#1B191A"/>
<path d="M15.1598 56.3554C15.9598 57.6154 15.5798 58.7954 14.3498 59.5654C13.1498 60.3254 11.8798 60.1554 11.0998 58.9154C10.3098 57.6554 10.6798 56.4654 11.9098 55.6954C13.1198 54.9354 14.3798 55.1154 15.1598 56.3554ZM11.7098 58.5354C12.1898 59.3054 13.1398 59.0554 13.7698 58.6554C14.4098 58.2554 15.0298 57.5054 14.5498 56.7454C14.0498 55.9554 13.1398 56.2054 12.4798 56.6254C11.8298 57.0354 11.2098 57.7554 11.7098 58.5354Z" fill="#1B191A"/>
<path d="M12.6 51.4854L13.23 53.0654L8.89997 54.7954L8.19997 53.0354C7.91997 52.3254 7.86997 51.5154 8.69997 51.1854C9.24997 50.9654 9.72997 51.1554 10.05 51.6354C9.91997 51.0554 10.11 50.4954 10.69 50.2654C11.72 49.8454 12.26 50.6354 12.6 51.4854ZM8.90997 53.0954L9.11997 53.6354L10.36 53.1454L10.18 52.6854C10.01 52.2554 9.69997 51.8854 9.19997 52.0854C8.73997 52.2654 8.74997 52.7054 8.90997 53.0954ZM10.75 52.5154L10.91 52.9254L12.27 52.3854L12.09 51.9254C11.91 51.4854 11.58 51.0254 11.04 51.2354C10.46 51.4754 10.56 52.0354 10.75 52.5154Z" fill="#1B191A"/>
<path d="M10.8199 45.0654L9.7599 45.6954L10.1499 47.6454L11.3799 47.8254L11.5799 48.8254L6.6599 48.0054L6.3999 46.6754L10.6199 44.0154L10.8199 45.0654ZM7.1699 47.2254L9.4099 47.5754L9.0999 46.0454L7.1699 47.2254Z" fill="#1B191A"/>
<path d="M10.5499 42.5854L5.89988 42.6954L5.87988 41.6654L9.70988 41.5754L9.65988 39.5754L10.4799 39.5554L10.5499 42.5854Z" fill="#1B191A"/>
<path d="M11.5798 32.9355C11.1998 34.3755 10.0798 34.9055 8.66981 34.5255C7.29981 34.1655 6.55981 33.1155 6.92981 31.7055C7.30981 30.2655 8.42981 29.7355 9.83981 30.1055C11.2298 30.4655 11.9598 31.5155 11.5798 32.9355ZM7.62981 31.8855C7.39981 32.7655 8.21981 33.2855 8.94981 33.4755C9.67981 33.6655 10.6498 33.6155 10.8798 32.7455C11.1198 31.8455 10.3098 31.3455 9.55981 31.1455C8.81981 30.9555 7.86981 30.9855 7.62981 31.8855Z" fill="#1B191A"/>
<path d="M13.83 26.8654L12.42 26.7254C11.94 26.6754 11.77 26.7054 11.55 27.1654L11.39 27.5054L13.13 28.3354L12.69 29.2454L8.48999 27.2354L9.30999 25.5254C9.64999 24.8054 10.27 24.2254 11.11 24.6254C11.69 24.9054 11.83 25.4954 11.66 26.0854C11.92 25.7454 12.19 25.6854 12.6 25.7154L14.3 25.8654L13.83 26.8654ZM9.75999 26.1854L9.53999 26.6354L10.76 27.2154L10.96 26.7954C11.16 26.3654 11.25 25.8554 10.75 25.6154C10.26 25.3854 9.97999 25.7354 9.75999 26.1854Z" fill="#1B191A"/>
<path d="M16.4499 22.8555C15.5699 24.0655 14.2499 24.4155 13.0099 23.5055C11.8099 22.6355 11.7299 21.1755 12.5699 20.0255C12.8399 19.6455 13.2199 19.2555 13.5899 18.9755L14.1999 19.4655C13.8299 19.6555 13.5299 19.9555 13.2899 20.2855C12.6899 21.1155 12.8199 22.0255 13.6499 22.6355C14.3999 23.1855 15.2799 23.2255 15.8699 22.4255C16.0199 22.2255 16.1299 22.0155 16.1999 21.7655L15.3899 21.1755L15.0299 21.6755L14.4799 21.2755L15.3799 20.0255L17.1999 21.3455C17.0399 21.9055 16.7799 22.3955 16.4499 22.8555Z" fill="#1B191A"/>
<path d="M20.93 17.9154L19.83 17.3454L18.38 18.7054L18.87 19.8454L18.13 20.5454L16.24 15.9354L17.23 15.0054L21.72 17.1854L20.93 17.9154ZM17.18 15.9554L18.06 18.0554L19.2 16.9954L17.18 15.9554Z" fill="#1B191A"/>
<path d="M25.0298 15.0154L21.5598 12.6954L23.5698 15.9254L22.7898 16.4054L20.3298 12.4454L21.6098 11.6454L25.0898 13.9754L23.0798 10.7354L23.8598 10.2554L26.3198 14.2154L25.0298 15.0154Z" fill="#1B191A"/>
<path d="M28.0998 13.4154L26.2698 9.13535L27.2198 8.73535L29.0498 13.0154L28.0998 13.4154Z" fill="#1B191A"/>
<path d="M33.09 11.7754C31.64 12.1754 30.4 11.6154 30 10.1254C29.61 8.71535 30.45 7.51535 31.83 7.13535C32.19 7.03535 32.63 6.98535 33 6.98535L33.16 7.74535C32.85 7.70535 32.48 7.73535 32.18 7.81535C31.22 8.07535 30.79 8.89535 31.04 9.83535C31.3 10.7954 32.05 11.2654 33.02 11.0054C33.35 10.9154 33.66 10.7754 33.93 10.5554L34.17 11.2654C33.88 11.5054 33.46 11.6754 33.09 11.7754Z" fill="#1B191A"/>
<path d="M41.4199 7.03541L41.3299 10.8654L40.2899 10.8454L40.3799 7.01541L38.9199 6.98541L38.9399 6.16541L42.8999 6.25541L42.8799 7.07541L41.4199 7.03541Z" fill="#1B191A"/>
<path d="M44.1599 11.0754L44.9999 6.49536L47.9899 7.04536L47.8599 7.74536L45.8699 7.38536L45.6499 8.58536L47.5499 8.93536L47.4199 9.63536L45.5199 9.28536L45.2799 10.5654L47.3399 10.9454L47.2099 11.6454L44.1599 11.0754Z" fill="#1B191A"/>
<path d="M51.5598 13.0754L51.1098 10.9054L49.3398 12.2654L48.2798 11.8754L50.7198 10.1954L50.0598 7.57544L51.1698 7.98544L51.5798 9.95544L53.1598 8.72544L54.1898 9.10544L51.9598 10.6654L52.7098 13.5254L51.5598 13.0754Z" fill="#1B191A"/>
<path d="M57.27 11.6655L55.37 14.9955L54.47 14.4755L56.37 11.1455L55.1 10.4255L55.51 9.71545L58.95 11.6755L58.54 12.3855L57.27 11.6655Z" fill="#1B191A"/>
<path d="M57.7598 16.5754L60.5798 12.8654L61.3998 13.4954L58.5798 17.2054L57.7598 16.5754Z" fill="#1B191A"/>
<path d="M60.24 18.5854L63.53 15.2854L64.26 16.0154L61.55 18.7254L62.97 20.1454L62.39 20.7254L60.24 18.5854Z" fill="#1B191A"/>
<path d="M63.25 21.7554L67 18.9854L68.81 21.4254L68.24 21.8454L67.04 20.2154L66.06 20.9454L67.21 22.5054L66.64 22.9254L65.49 21.3654L64.44 22.1454L65.68 23.8254L65.11 24.2454L63.25 21.7554Z" fill="#1B191A"/>
<path d="M67.8998 29.9954C67.7298 29.5454 67.6098 29.0654 67.5898 28.5854L68.3498 28.3354C68.2998 28.7854 68.3899 29.2354 68.5499 29.6554C68.6999 30.0554 69.0098 30.4454 69.4698 30.2654C69.7998 30.1354 69.8098 29.6154 69.8298 29.2454L69.8598 28.7254C69.8798 28.1254 70.0498 27.6254 70.6498 27.4054C71.5998 27.0554 72.2598 27.9154 72.5598 28.7154C72.6998 29.0854 72.7998 29.4654 72.8298 29.8654L72.0998 30.1054C72.1098 29.7454 72.0399 29.3654 71.9099 29.0254C71.7699 28.6654 71.4799 28.2054 71.0499 28.3654C70.7499 28.4754 70.7299 28.9154 70.7299 29.2454L70.7198 29.7854C70.7098 30.4454 70.5598 30.9854 69.8798 31.2354C68.9198 31.5954 68.2198 30.8554 67.8998 29.9954Z" fill="#1B191A"/>
<path d="M73.1599 34.3054L69.3999 35.0754L69.1899 34.0554L72.9499 33.2854L72.6599 31.8554L73.4699 31.6954L74.2599 35.5754L73.4499 35.7354L73.1599 34.3054Z" fill="#1B191A"/>
<path d="M69.9298 40.9255L71.0798 40.4755L71.0098 38.4955L69.8298 38.1155L69.7998 37.0955L74.5098 38.7155L74.5598 40.0655L69.9598 41.9955L69.9298 40.9255ZM73.8898 39.3955L71.7398 38.6755L71.7898 40.2355L73.8898 39.3955Z" fill="#1B191A"/>
<path d="M69.4299 45.8954L73.4599 44.8054L69.6999 44.1954L69.8499 43.2954L74.4499 44.0454L74.2099 45.5354L70.1699 46.6254L73.9299 47.2354L73.7799 48.1354L69.1799 47.3854L69.4299 45.8954Z" fill="#1B191A"/>
<path d="M68.1198 50.7254L68.6698 49.2654L73.0298 50.9154L72.4198 52.5254C71.8798 53.9354 70.8398 54.4654 69.3998 53.9154C67.9098 53.3554 67.5798 52.1454 68.1198 50.7254ZM71.8098 52.1254L71.9998 51.6254L68.9798 50.4754L68.8398 50.8354C68.4598 51.8254 68.7798 52.5254 69.7798 52.9054C70.6498 53.2354 71.4598 53.0554 71.8098 52.1254Z" fill="#1B191A"/>
<path d="M64.9199 57.0754L66.1299 57.3254L67.1599 55.6254L66.3799 54.6654L66.9099 53.7954L69.9799 57.7254L69.2799 58.8854L64.3699 57.9954L64.9199 57.0754ZM69.0699 57.9554L67.6599 56.1754L66.8499 57.5054L69.0699 57.9554Z" fill="#1B191A"/>
<path d="M61.8599 60.8954L63.1799 61.4154C63.6299 61.5954 63.7999 61.6054 64.1399 61.2254L64.3899 60.9454L62.9399 59.6754L63.6099 58.9154L67.0999 61.9954L65.8399 63.4254C65.3099 64.0254 64.5599 64.4154 63.8599 63.7954C63.3799 63.3754 63.3999 62.7654 63.7199 62.2354C63.3799 62.4954 63.0999 62.4854 62.7099 62.3354L61.1099 61.7254L61.8599 60.8954ZM65.5999 62.6554L65.9299 62.2854L64.9199 61.3954L64.6099 61.7454C64.2999 62.1054 64.0799 62.5654 64.4899 62.9354C64.8999 63.2954 65.2599 63.0354 65.5999 62.6554Z" fill="#1B191A"/>
<path d="M58.87 63.6554L60.1 62.6854L62.98 66.3454L61.63 67.4154C60.44 68.3454 59.27 68.2654 58.32 67.0554C57.34 65.8054 57.67 64.5954 58.87 63.6554ZM61.31 66.7554L61.73 66.4254L59.73 63.8854L59.43 64.1254C58.6 64.7854 58.51 65.5454 59.17 66.3854C59.75 67.1154 60.53 67.3654 61.31 66.7554Z" fill="#1B191A"/>
<path d="M32.1899 73.8354C30.7299 73.4654 29.9199 72.3654 30.2899 70.8654C30.6499 69.4254 31.9799 68.7954 33.3799 69.1454C33.8399 69.2554 34.3399 69.4654 34.7399 69.7054L34.5099 70.4554C34.1899 70.1854 33.7999 70.0054 33.4099 69.9054C32.4099 69.6554 31.5999 70.1154 31.3499 71.1154C31.1199 72.0254 31.4099 72.8554 32.3799 73.1054C32.6199 73.1654 32.8599 73.1954 33.1199 73.1654L33.3599 72.1954L32.7599 72.0454L32.9199 71.3854L34.4199 71.7654L33.8699 73.9554C33.3099 74.0254 32.7499 73.9654 32.1899 73.8354Z" fill="#1B191A"/>
<path d="M38 74.6954C36.52 74.6054 35.79 73.6054 35.88 72.1654C35.97 70.7554 36.85 69.8354 38.3 69.9254C39.78 70.0154 40.51 71.0154 40.42 72.4554C40.34 73.8754 39.46 74.7954 38 74.6954ZM38.26 70.6454C37.36 70.5854 37.01 71.4954 36.96 72.2354C36.91 72.9854 37.15 73.9254 38.05 73.9854C38.97 74.0454 39.31 73.1554 39.36 72.3954C39.41 71.6154 39.18 70.7054 38.26 70.6454Z" fill="#1B191A"/>
<path d="M43.8298 70.7854L44.2098 74.5854L43.1798 74.6854L42.7998 70.8854L41.3598 71.0354L41.2798 70.2154L45.1998 69.8254L45.2798 70.6454L43.8298 70.7854Z" fill="#1B191A"/>
<path d="M48.7698 73.8354C48.3098 73.9554 47.8398 74.0254 47.3698 73.9954L47.2098 73.2354C47.6398 73.3354 48.0798 73.2854 48.5098 73.1754C48.9198 73.0654 49.3098 72.8154 49.1898 72.3454C49.0998 72.0054 48.5898 71.9554 48.2398 71.8954L47.7398 71.8154C47.1598 71.7354 46.6898 71.5154 46.5398 70.9154C46.2898 69.9554 47.1898 69.4054 47.9998 69.1954C48.3798 69.0954 48.7598 69.0354 49.1398 69.0454L49.2998 69.7754C48.9598 69.7254 48.5698 69.7654 48.2398 69.8454C47.8798 69.9354 47.3998 70.1754 47.5098 70.6154C47.5898 70.9154 48.0098 70.9854 48.3298 71.0154L48.8498 71.0754C49.4898 71.1554 49.9998 71.3454 50.1798 72.0354C50.4198 73.0054 49.6398 73.6154 48.7698 73.8354Z" fill="#1B191A"/>
<path d="M25.3398 69.6254L25.7498 68.7654L26.7098 69.2254L26.2998 70.0854L25.3398 69.6254Z" fill="#1B191A"/>
<path d="M53.9098 70.0754L53.5098 69.2154L54.4698 68.7654L54.8698 69.6254L53.9098 70.0754Z" fill="#1B191A"/>
<path d="M18.72 38.2355L25 44.5055L30.84 38.6655V57.2555H39.72V29.9555L33.36 23.5955L18.72 38.2355ZM47.08 23.6055L40.73 29.9555V57.2555H49.61V38.6855L55.44 44.5155L61.72 38.2455L47.08 23.6055Z" fill="white"/>
</svg>

<svg xmlns="http://www.w3.org/2000/svg" width="80" height="81" fill="none"><path fill="#419C36" d="M40.21 14.476c-14.31 0-25.9 11.6-25.9 25.91s11.6 25.9 25.9 25.9c14.3 0 25.91-11.6 25.91-25.9 0-14.3-11.6-25.91-25.91-25.91"/><path fill="#1B191A" d="M21.66 63.646c1.18.92 1.47 2.25.53 3.46-.91 1.17-2.37 1.19-3.5.31-.37-.29-.75-.67-1.01-1.06l.51-.59c.17.38.46.69.78.94.81.63 1.73.54 2.36-.27.57-.73.65-1.61-.13-2.22-.2-.16-.4-.28-.64-.35l-.62.79.48.38-.42.53-1.21-.95 1.39-1.77c.55.17 1.04.45 1.48.8m-2.73-2.351-3.48 3.1-.69-.77 2.86-2.55-1.33-1.5.61-.55zm-3.77-4.94c.8 1.26.42 2.44-.81 3.21-1.2.76-2.47.59-3.25-.65-.79-1.26-.42-2.45.81-3.22 1.21-.76 2.47-.58 3.25.66m-3.45 2.18c.48.77 1.43.52 2.06.12.64-.4 1.26-1.15.78-1.91-.5-.79-1.41-.54-2.07-.12-.65.41-1.27 1.13-.77 1.91m.89-7.05.63 1.58-4.33 1.73-.7-1.76c-.28-.71-.33-1.52.5-1.85.55-.22 1.03-.03 1.35.45-.13-.58.06-1.14.64-1.37 1.03-.42 1.57.37 1.91 1.22m-3.69 1.61.21.54 1.24-.49-.18-.46c-.17-.43-.48-.8-.98-.6-.46.18-.45.62-.29 1.01m1.84-.58.16.41 1.36-.54-.18-.46c-.18-.44-.51-.9-1.05-.69-.58.24-.48.8-.29 1.28m.07-7.45-1.06.63.39 1.95 1.23.18.2 1-4.92-.82-.26-1.33 4.22-2.66zm-3.65 2.16 2.24.35-.31-1.53zm3.38-4.64-4.65.11-.02-1.03 3.83-.09-.05-2 .82-.02zm1.03-9.649c-.38 1.44-1.5 1.97-2.91 1.59-1.37-.36-2.11-1.41-1.74-2.82.38-1.44 1.5-1.97 2.91-1.6 1.39.36 2.12 1.41 1.74 2.83m-3.95-1.05c-.23.88.59 1.4 1.32 1.59.73.19 1.7.14 1.93-.73.24-.9-.57-1.4-1.32-1.6-.74-.19-1.69-.16-1.93.74m6.2-5.021-1.41-.14c-.48-.05-.65-.02-.87.44l-.16.34 1.74.83-.44.91-4.2-2.01.82-1.71c.34-.72.96-1.3 1.8-.9.58.28.72.87.55 1.46.26-.34.53-.4.94-.37l1.7.15zm-4.07-.68-.22.45 1.22.58.2-.42c.2-.43.29-.94-.21-1.18-.49-.23-.77.12-.99.57m6.69-3.329c-.88 1.21-2.2 1.56-3.44.65-1.2-.87-1.28-2.33-.44-3.48.27-.38.65-.77 1.02-1.05l.61.49c-.37.19-.67.49-.91.82-.6.83-.47 1.74.36 2.35.75.55 1.63.59 2.22-.21.15-.2.26-.41.33-.66l-.81-.59-.36.5-.55-.4.9-1.25 1.82 1.32c-.16.56-.42 1.05-.75 1.51m4.48-4.941-1.1-.57-1.45 1.36.49 1.14-.74.7-1.89-4.61.99-.93 4.49 2.18zm-3.75-1.96.88 2.1 1.14-1.06zm7.85-.94-3.47-2.32 2.01 3.23-.78.48-2.46-3.96 1.28-.8 3.48 2.33-2.01-3.24.78-.48 2.46 3.96zm3.07-1.6-1.83-4.28.95-.4 1.83 4.28zm4.99-1.64c-1.45.4-2.69-.16-3.09-1.65-.39-1.41.45-2.61 1.83-2.99.36-.1.8-.15 1.17-.15l.16.76c-.31-.04-.68-.01-.98.07-.96.26-1.39 1.08-1.14 2.02.26.96 1.01 1.43 1.98 1.17.33-.09.64-.23.91-.45l.24.71c-.29.24-.71.41-1.08.51m8.33-4.74-.09 3.83-1.04-.02.09-3.83-1.46-.03.02-.82 3.96.09-.02.82zm2.74 4.04.84-4.58 2.99.55-.13.7-1.99-.36-.22 1.2 1.9.35-.13.7-1.9-.35-.24 1.28 2.06.38-.13.7zm7.4 2-.45-2.17-1.77 1.36-1.06-.39 2.44-1.68-.66-2.62 1.11.41.41 1.97 1.58-1.23 1.03.38-2.23 1.56.75 2.86zm5.71-1.409-1.9 3.33-.9-.52 1.9-3.33-1.27-.72.41-.71 3.44 1.96-.41.71zm.49 4.909 2.82-3.71.82.63-2.82 3.71zm2.48 2.01 3.29-3.3.73.73-2.71 2.71 1.42 1.42-.58.58zm3.01 3.17 3.75-2.77 1.81 2.44-.57.42-1.2-1.63-.98.73 1.15 1.56-.57.42-1.15-1.56-1.05.78 1.24 1.68-.57.42zm4.65 8.24c-.17-.45-.29-.93-.31-1.41l.76-.25c-.05.45.04.9.2 1.32.15.4.46.79.92.61.33-.13.34-.65.36-1.02l.03-.52c.02-.6.19-1.1.79-1.32.95-.35 1.61.51 1.91 1.31.14.37.24.75.27 1.15l-.73.24c.01-.36-.06-.74-.19-1.08-.14-.36-.43-.82-.86-.66-.3.11-.32.55-.32.88l-.01.54c-.01.66-.16 1.2-.84 1.45-.96.36-1.66-.38-1.98-1.24m5.26 4.31-3.76.77-.21-1.02 3.76-.77-.29-1.43.81-.16.79 3.88-.81.16zm-3.23 6.621 1.15-.45-.07-1.98-1.18-.38-.03-1.02 4.71 1.62.05 1.35-4.6 1.93zm3.96-1.53-2.15-.72.05 1.56zm-4.46 6.499 4.03-1.09-3.76-.61.15-.9 4.6.75-.24 1.49-4.04 1.09 3.76.61-.15.9-4.6-.75zm-1.31 4.83.55-1.46 4.36 1.65-.61 1.61c-.54 1.41-1.58 1.94-3.02 1.39-1.49-.56-1.82-1.77-1.28-3.19m3.69 1.4.19-.5-3.02-1.15-.14.36c-.38.99-.06 1.69.94 2.07.87.33 1.68.15 2.03-.78m-6.89 4.95 1.21.25 1.03-1.7-.78-.96.53-.87 3.07 3.93-.7 1.16-4.91-.89zm4.15.88-1.41-1.78-.81 1.33zm-7.21 2.94 1.32.52c.45.18.62.19.96-.19l.25-.28-1.45-1.27.67-.76 3.49 3.08-1.26 1.43c-.53.6-1.28.99-1.98.37-.48-.42-.46-1.03-.14-1.56-.34.26-.62.25-1.01.1l-1.6-.61zm3.74 1.76.33-.37-1.01-.89-.31.35c-.31.36-.53.82-.12 1.19.41.36.77.1 1.11-.28m-6.73 1 1.23-.97 2.88 3.66-1.35 1.07c-1.19.93-2.36.85-3.31-.36-.98-1.25-.65-2.46.55-3.4m2.44 3.1.42-.33-2-2.54-.3.24c-.83.66-.92 1.42-.26 2.26.58.73 1.36.98 2.14.37m-29.12 7.08c-1.46-.37-2.27-1.47-1.9-2.97.36-1.44 1.69-2.07 3.09-1.72.46.11.96.32 1.36.56l-.23.75c-.32-.27-.71-.45-1.1-.55-1-.25-1.81.21-2.06 1.21-.23.91.06 1.74 1.03 1.99.24.06.48.09.74.06l.24-.97-.6-.15.16-.66 1.5.38-.55 2.19c-.56.07-1.12.01-1.68-.12m5.81.86c-1.48-.09-2.21-1.09-2.12-2.53.09-1.41.97-2.33 2.42-2.24 1.48.09 2.21 1.09 2.12 2.53-.08 1.42-.96 2.34-2.42 2.24m.26-4.05c-.9-.06-1.25.85-1.3 1.59-.05.75.19 1.69 1.09 1.75.92.06 1.26-.83 1.31-1.59.05-.78-.18-1.69-1.1-1.75m5.57.14.38 3.8-1.03.1-.38-3.8-1.44.15-.08-.82 3.92-.39.08.82zm4.94 3.05c-.46.12-.93.19-1.4.16l-.16-.76c.43.1.87.05 1.3-.06.41-.11.8-.36.68-.83-.09-.34-.6-.39-.95-.45l-.5-.08c-.58-.08-1.05-.3-1.2-.9-.25-.96.65-1.51 1.46-1.72.38-.1.76-.16 1.14-.15l.16.73a2.91 2.91 0 0 0-1.06.07c-.36.09-.84.33-.73.77.08.3.5.37.82.4l.52.06c.64.08 1.15.27 1.33.96.24.97-.54 1.58-1.41 1.8m-23.43-4.21.41-.86.96.46-.41.86zm28.57.45-.4-.86.96-.45.4.86z"/><path fill="#fff" d="m18.72 38.236 6.28 6.27 5.84-5.84v18.59h8.88v-27.3l-6.36-6.36zm28.36-14.63-6.35 6.35v27.3h8.88v-18.57l5.83 5.83 6.28-6.27z"/></svg>
